X: 16353
T: Gullane, The
R: polka
M: 2/4
K: Dmajor
Ad BA|DF FD|C>E GE|BA F>G|
Ad BA|DF FD|C>E GE|1 ED DF:|2 ED DD/E/||
|:F2 G2|BA FG|(AA) GE|BA FA|
FA G>A|BA FG|(AA) GE|1 ED DA:|2 ED DF||

